X: 12934
T: Fiddler's Chair, The
R: reel
M: 4/4
K: Gmajor
B/B/B Ac BG E/F/G|DE E/F/G ABcA|GE E/E/E DE E/E/E|edBG A/B/A:|
e/e/e d/e/f gage|g/a/g eg edBA|G2 (3BAG dG B/c/d|1 edBG A2:|2 edBA G2||

